.storybook/public/story-assets/icon.svg

<svg xmlns="http://www.w3.org/2000/svg" width="32" height="32" viewBox="0 0 32 32" fill="none">
<path fill-rule="evenodd" clip-rule="evenodd" d="M16 2C8.26801 2 2 8.26801 2 16C2 23.732 8.26801 30 16 30C23.732 30 30 23.732 30 16C30 8.26801 23.732 2 16 2ZM0 16C0 7.16344 7.16344 0 16 0C24.8366 0 32 7.16344 32 16C32 24.8366 24.8366 32 16 32C7.16344 32 0 24.8366 0 16Z" fill="#5282FF"/>
<path fill-rule="evenodd" clip-rule="evenodd" d="M22.7071 9.29289C23.0976 9.68342 23.0976 10.3166 22.7071 10.7071L10.7071 22.7071C10.3166 23.0976 9.68342 23.0976 9.29289 22.7071C8.90237 22.3166 8.90237 21.6834 9.29289 21.2929L21.2929 9.29289C21.6834 8.90237 22.3166 8.90237 22.7071 9.29289Z" fill="#5282FF"/>
<path fill-rule="evenodd" clip-rule="evenodd" d="M20.5 19C19.6716 19 19 19.6716 19 20.5C19 21.3284 19.6716 22 20.5 22C21.3284 22 22 21.3284 22 20.5C22 19.6716 21.3284 19 20.5 19ZM17 20.5C17 18.567 18.567 17 20.5 17C22.433 17 24 18.567 24 20.5C24 22.433 22.433 24 20.5 24C18.567 24 17 22.433 17 20.5Z" fill="#5282FF"/>
<path fill-rule="evenodd" clip-rule="evenodd" d="M11.5 10C10.6716 10 10 10.6716 10 11.5C10 12.3284 10.6716 13 11.5 13C12.3284 13 13 12.3284 13 11.5C13 10.6716 12.3284 10 11.5 10ZM8 11.5C8 9.567 9.567 8 11.5 8C13.433 8 15 9.567 15 11.5C15 13.433 13.433 15 11.5 15C9.567 15 8 13.433 8 11.5Z" fill="#5282FF"/>
</svg>

<svg xmlns="http://www.w3.org/2000/svg" width="32" height="32" fill="none"><path fill="#5282FF" fill-rule="evenodd" d="M16 2C8.268 2 2 8.268 2 16s6.268 14 14 14 14-6.268 14-14S23.732 2 16 2M0 16C0 7.163 7.163 0 16 0s16 7.163 16 16-7.163 16-16 16S0 24.837 0 16" clip-rule="evenodd"/><path fill="#5282FF" fill-rule="evenodd" d="M22.707 9.293a1 1 0 0 1 0 1.414l-12 12a1 1 0 0 1-1.414-1.414l12-12a1 1 0 0 1 1.414 0M20.5 19a1.5 1.5 0 1 0 0 3 1.5 1.5 0 0 0 0-3M17 20.5a3.5 3.5 0 1 1 7 0 3.5 3.5 0 0 1-7 0M11.5 10a1.5 1.5 0 1 0 0 3 1.5 1.5 0 0 0 0-3M8 11.5a3.5 3.5 0 1 1 7 0 3.5 3.5 0 0 1-7 0" clip-rule="evenodd"/></svg>
